X:507
T:
R:vals
S:Efter handlanden Cedergren i Hemse.
O:Gotland, Hemse
M:3/4
L:1/8
K:F
A>B|c2 ca c2|c2 ca c2|d2 db d2|c2 ca c2|B2 Bg B2|A2 Af A2|
G2 G^F GA|(FE)(FG)(AB)|c2 ca c2|c2 ca c2|d2 db d2|c2 ca c2|
B2 Bg B2|A2 Af A2|G2 G^FGA|F2 z2::C2|(CE) (Gc) (eg)|(gb)(ag)(fe)|
(fa)(gf)(ed)|(c=B)(dc)(AF)|(CE)(Gc) (ef)|(gb)(ag)(fe)|
(fa)(gf)(ed)|c=Bdc A_B|c2 ca c2|c2 ca c2|d2 db d2|
c2 ca c2|B2 Bg B2|A2 Af A2|GAGFGA|F4::(3ceg|b2 g2 g2|
a2 f2 fa|eg c2 de|facc fa|b2 g2 gb|a2 f2 f2|eg c2 de|f4:|

